X: 20612
Q: "With spirit."
M: 3/8
L: 1/16
K: G
d2f2g2 | (ag)(fe)(dc) | B2A2G2 | (G3BdB2) |\
d2g2 (fg) | (ag)(fe)(dc) | B2G2G2 | G4 |]


